frontend/public/assets/material-icons/folder-java-open.svg

<svg xmlns="http://www.w3.org/2000/svg" viewBox="0 0 32 32">
  <path d="M28.96692,12H9.44152a2,2,0,0,0-1.89737,1.36754L4,24V10H28a2,2,0,0,0-2-2H15.1241a2,2,0,0,1-1.28038-.46357L12.5563,6.46357A2,2,0,0,0,11.27592,6H4A2,2,0,0,0,2,8V24a2,2,0,0,0,2,2H26l4.80523-11.21213A2,2,0,0,0,28.96692,12Z" style="fill: #ef5350"/>
  <g>
    <rect x="14" y="26" width="16" height="2" style="fill: #ffcdd2"/>
    <path d="M31,12H16v8a4,4,0,0,0,4,4h4a4,4,0,0,0,4-4h3a1,1,0,0,0,1-1V13A1,1,0,0,0,31,12Zm-1,6H28V14h2Z" style="fill: #ffcdd2;fill-rule: evenodd"/>
  </g>
</svg>

<svg xmlns="http://www.w3.org/2000/svg" viewBox="0 0 32 32"><path fill="#ef5350" d="M28.967 12H9.442a2 2 0 0 0-1.898 1.368L4 24V10h24a2 2 0 0 0-2-2H15.124a2 2 0 0 1-1.28-.464l-1.288-1.072A2 2 0 0 0 11.276 6H4a2 2 0 0 0-2 2v16a2 2 0 0 0 2 2h22l4.805-11.212A2 2 0 0 0 28.967 12"/><path fill="#ffcdd2" d="M14 26h16v2H14zm17-14H16v8a4 4 0 0 0 4 4h4a4 4 0 0 0 4-4h3a1 1 0 0 0 1-1v-6a1 1 0 0 0-1-1m-1 6h-2v-4h2Z"/></svg>
